share/icons/Flat-Remix-Blue-Dark/mimetypes/scalable/application-postscript.svg

<svg width="36pt" height="36pt" version="1.1" viewBox="0 0 36 36" xmlns="http://www.w3.org/2000/svg"><defs><filter id="a" x="-.192" y="-.192" width="1.384" height="1.384" color-interpolation-filters="sRGB"><feGaussianBlur stdDeviation="0.67843748"/></filter></defs><path d="m7.3477 3.9022c-0.67188 0-1.3047 0.63281-1.3047 1.3047v27.391c0 0.63281 0.67188 1.3047 1.3047 1.3047h20.871c0.63281 0 1.3047-0.67188 1.3047-1.3047v-20.215l-8.4805-8.4805z" opacity=".3"/><path d="m7.3477 3.1523c-0.67188 0-1.3047 0.63281-1.3047 1.3047v27.391c0 0.63281 0.67188 1.3047 1.3047 1.3047h20.871c0.63281 0 1.3047-0.67188 1.3047-1.3047v-20.215l-8.4805-8.4805z" fill="#d31818"/><path d="m20.668 3.5272 8.4805 8.4805h-7.1758c-0.63281 0-1.3047-0.67187-1.3047-1.3047z" filter="url(#a)" opacity=".2"/><path d="m21.043 3.1523 8.4805 8.4805h-7.1758c-0.63281 0-1.3047-0.67187-1.3047-1.3047z" fill="#e05d5d"/><path d="m13.664 17.863c0.50391 0.023438 1.0547 0.34375 1.4688 0.61719 1.2109 0.80469 2.1758 2.1367 1.9844 3.668 0.17969-0.29297 0.19141-0.71875 0.19141-1.0508 0-1.0742-0.57812-2.1797-1.3047-2.9297-0.24609-0.25-0.5-0.53906-0.81641-0.69141l3.5938-4.2539 0.86328-1.0234c0.066407-0.078125 0.28906-0.26172 0.24219-0.37891-0.046875-0.10937-0.25391-0.17578-0.35156-0.21875-0.10938-0.050781-0.30859-0.15625-0.43359-0.11328-0.125 0.046875-0.23047 0.22656-0.31641 0.32422l-0.66016 0.77344-3.1094 3.6484-0.92188 1.0781c-0.14453 0.17188-0.33594 0.34375-0.42969 0.55078z" fill="#fff"/><path d="m11.625 19.105c1.2383-1.3125 2.3281-2.7773 3.5117-4.1445l1.4961-1.7656c0.34375-0.39844 0.75391-0.79687 1.0273-1.2461-0.17969-0.050781-0.58984-0.085938-0.76172 0-0.18359 0.09375-0.33594 0.34375-0.46875 0.5l-0.85156 0.96484c-0.125 0.14844-0.27344 0.37891-0.44531 0.46875-0.25 0.12891-0.70312 0.078126-0.98047 0.085938l-1.0039 0.078125c-0.75 0.054687-1.6055 0.054687-1.9766 0.85938-0.29688 0.64453-0.25391 1.5664-0.28125 2.2656-0.066406 1.4688-0.11328 2.957 0.023437 4.4219 0.058594 0.62891-0.011718 1.4297 0.30859 1.9883 0.3125 0.55078 0.91797 0.66797 1.4883 0.72266 1.1055 0.10547 2.4258 0.074218 3.3164-0.70313 1.0586-0.91797 0.91016-2.5625-0.050782-3.4688-1.0547-0.99219-2.9805-1.4961-4.3516-1.0273z" fill="#fff"/><path d="m15.352 24.441c0.19922 0.085938 0.53906 0.054688 0.75781 0.054688l1.3867 0.027344c1.7617 0 3.4961-0.11328 5.25-0.19141 0.83203-0.039062 1.7734-0.070312 2.1172-0.99609 0.21875-0.58984 0.17969-1.3438 0.22266-1.9609 0.097656-1.4375 0.13672-2.9062 0.003906-4.3398-0.066406-0.67188 0.015625-1.5078-0.27734-2.1289-0.44531-0.96094-1.8008-0.89062-2.6914-0.91016-0.22266-0.007813-0.63281-0.13672-0.83203-0.039063-0.15234 0.074219-0.24609 0.46875-0.31641 0.61719l-0.79297 1.7422c-0.92969 2.0586-1.8008 4.168-2.8125 6.1914-0.39063 0.78125-1.0977 1.7734-2.0156 1.9336z" fill="#fff"/></svg>

<svg xmlns="http://www.w3.org/2000/svg" xmlns:xlink="http://www.w3.org/1999/xlink" width="36pt" height="36pt" version="1.1" viewBox="0 0 36 36"> <defs> <clipPath id="clip1"> <path d="M 20 2 L 31 2 L 31 13 L 20 13 Z M 20 2"/> </clipPath> <clipPath id="clip2"> <path d="M 20.515625 2.625 L 30.328125 12.4375 L 22.023438 12.4375 C 21.292969 12.4375 20.515625 11.660156 20.515625 10.929688 Z M 20.515625 2.625"/> </clipPath> <image id="image6" width="36" height="36" xlink:href="data:image/png;base64,iVBORw0KGgoAAAANSUhEUgAAACQAAAAkCAYAAADhAJiYAAAABmJLR0QA/wD/AP+gvaeTAAAAmklEQVRYhe3T0QqCQBBG4aOtYEoUvf9Lildltl00C4tkbBeTIP+BAUEYP1YW1Pcqh53B9kbgaVPcwQF0tAmGSrMZ6AKcDQXw+AUVHEAtcAUaewYYgYmC3+cBCkAPnDJQMcoDVNnebgEqQnmAclTz4d0I3P4JStc9AjXvk4qLWQV53LLeEOl05gw4A3dgcPiuUkoppZRSSqk99gLWvSJpuDnlsAAAAABJRU5ErkJggg=="/> </defs> <g> <path style="fill:rgb(83.137%,9.803%,9.803%)" d="M 7.347656 3.152344 C 6.675781 3.152344 6.042969 3.785156 6.042969 4.457031 L 6.042969 31.847656 C 6.042969 32.480469 6.714844 33.152344 7.347656 33.152344 L 28.21875 33.152344 C 28.851562 33.152344 29.523438 32.480469 29.523438 31.847656 L 29.523438 11.632812 L 21.042969 3.152344 Z M 7.347656 3.152344"/> <g clip-path="url(#clip1)"> <g clip-path="url(#clip2)"> <use xlink:href="#image6"/> </g> </g> <path style="fill:rgb(88.235%,36.862%,36.862%)" d="M 21.042969 3.152344 L 29.523438 11.632812 L 22.347656 11.632812 C 21.714844 11.632812 21.042969 10.960938 21.042969 10.328125 Z M 21.042969 3.152344"/> <path style="fill:rgb(100.000%,100.000%,100.000%)" d="M 13.664062 17.863281 C 14.167969 17.886719 14.71875 18.207031 15.132812 18.480469 C 16.34375 19.285156 17.308594 20.617188 17.117188 22.148438 C 17.296875 21.855469 17.308594 21.429688 17.308594 21.097656 C 17.308594 20.023438 16.730469 18.917969 16.003906 18.167969 C 15.757812 17.917969 15.503906 17.628906 15.1875 17.476562 L 18.78125 13.222656 L 19.644531 12.199219 C 19.710938 12.121094 19.933594 11.9375 19.886719 11.820312 C 19.839844 11.710938 19.632812 11.644531 19.535156 11.601562 C 19.425781 11.550781 19.226562 11.445312 19.101562 11.488281 C 18.976562 11.535156 18.871094 11.714844 18.785156 11.8125 L 18.125 12.585938 L 15.015625 16.234375 L 14.09375 17.3125 C 13.949219 17.484375 13.757812 17.65625 13.664062 17.863281 Z M 13.664062 17.863281"/> <path style="fill:rgb(100.000%,100.000%,100.000%)" d="M 11.625 19.105469 C 12.863281 17.792969 13.953125 16.328125 15.136719 14.960938 L 16.632812 13.195312 C 16.976562 12.796875 17.386719 12.398438 17.660156 11.949219 C 17.480469 11.898438 17.070312 11.863281 16.898438 11.949219 C 16.714844 12.042969 16.5625 12.292969 16.429688 12.449219 L 15.578125 13.414062 C 15.453125 13.5625 15.304688 13.792969 15.132812 13.882812 C 14.882812 14.011719 14.429688 13.960938 14.152344 13.96875 L 13.148438 14.046875 C 12.398438 14.101562 11.542969 14.101562 11.171875 14.90625 C 10.875 15.550781 10.917969 16.472656 10.890625 17.171875 C 10.824219 18.640625 10.777344 20.128906 10.914062 21.59375 C 10.972656 22.222656 10.902344 23.023438 11.222656 23.582031 C 11.535156 24.132812 12.140625 24.25 12.710938 24.304688 C 13.816406 24.410156 15.136719 24.378906 16.027344 23.601562 C 17.085938 22.683594 16.9375 21.039062 15.976562 20.132812 C 14.921875 19.140625 12.996094 18.636719 11.625 19.105469 Z M 11.625 19.105469"/> <path style="fill:rgb(100.000%,100.000%,100.000%)" d="M 15.351562 24.441406 C 15.550781 24.527344 15.890625 24.496094 16.109375 24.496094 L 17.496094 24.523438 C 19.257812 24.523438 20.992188 24.410156 22.746094 24.332031 C 23.578125 24.292969 24.519531 24.261719 24.863281 23.335938 C 25.082031 22.746094 25.042969 21.992188 25.085938 21.375 C 25.183594 19.9375 25.222656 18.46875 25.089844 17.035156 C 25.023438 16.363281 25.105469 15.527344 24.8125 14.90625 C 24.367188 13.945312 23.011719 14.015625 22.121094 13.996094 C 21.898438 13.988281 21.488281 13.859375 21.289062 13.957031 C 21.136719 14.03125 21.042969 14.425781 20.972656 14.574219 L 20.179688 16.316406 C 19.25 18.375 18.378906 20.484375 17.367188 22.507812 C 16.976562 23.289062 16.269531 24.28125 15.351562 24.441406 Z M 15.351562 24.441406"/> </g> </svg>
